X: 21271
T: DUNFERMLINE RACES
R: reel
B: K\"ohler's Violin Repository, v.2, 1885 p.127 #1
F: http://www.archive.org/details/klersviolinrepos02rugg
Z: 2012 John Chambers <jc:trillian.mit.edu>
M: C|
L: 1/8
K: A
ue !segno!|\
cA (c/d/)e cA (c/d/)e | =gGGB d2(de) | cA (c/d/e) cA (c/d/e) | aAAc e2(ed) :|
v(cd)ef (=ga)ge | =gGGB d2(dB) | (cd)ef (ga)ge | aAAc e2(ed) |
(cd)ef (=ga)ge | =gGGB d2(dB) | (cd)ef (ef)ge | aefd efe"_Fine."d !segno!|]

%%sep 2 1 500

